icon/ir/football-ball.svg

<svg stroke-width="1.5" viewBox="0 0 24 24" fill="none" xmlns="http://www.w3.org/2000/svg" height="1em" width="1em">
  <path d="M4.11543 14.0149C3.95724 15.3855 3.95988 16.6715 4.01198 17.6795C4.07734 18.9439 5.05607 19.9227 6.3205 19.988C7.32849 20.0401 8.61453 20.0428 9.98508 19.8846M4.11543 14.0149C4.39374 11.6036 5.16988 8.93063 7.05025 7.05025C8.93063 5.16988 11.6036 4.39374 14.0149 4.11543M4.11543 14.0149L9.98508 19.8846M9.98508 19.8846C12.3964 19.6063 15.0694 18.8301 16.9497 16.9497C18.8301 15.0694 19.6063 12.3964 19.8846 9.98508M14.0149 4.11543C15.3855 3.95724 16.6715 3.95988 17.6795 4.01198C18.9439 4.07734 19.9227 5.05607 19.988 6.3205C20.0401 7.32849 20.0428 8.61453 19.8846 9.98508M14.0149 4.11543L19.8846 9.98508M9.17158 14.8284L10.5858 13.4142M10.5858 13.4142L9.17158 12M10.5858 13.4142L12 14.8284M10.5858 13.4142L13.4142 10.5858M13.4142 10.5858L14.8284 9.17158M13.4142 10.5858L12 9.17158M13.4142 10.5858L14.8284 12" stroke="currentColor" stroke-linecap="round" stroke-linejoin="round"/>
</svg>

<svg width="24" height="24" stroke-width="1.5" fill="none" xmlns="http://www.w3.org/2000/svg"><path d="M4.115 14.015a22.314 22.314 0 0 0-.103 3.665 2.413 2.413 0 0 0 2.309 2.308c1.007.052 2.294.055 3.664-.103m-5.87-5.87C4.394 11.604 5.17 8.93 7.05 7.05c1.88-1.88 4.554-2.656 6.965-2.935m-9.9 9.9 5.87 5.87m0 0c2.411-.279 5.084-1.055 6.965-2.935 1.88-1.88 2.656-4.554 2.935-6.965m-5.87-5.87a22.314 22.314 0 0 1 3.665-.103 2.413 2.413 0 0 1 2.308 2.309 22.312 22.312 0 0 1-.103 3.664m-5.87-5.87 5.87 5.87M9.172 14.828l1.414-1.414m0 0L9.172 12m1.414 1.414L12 14.828m-1.414-1.414 2.828-2.828m0 0 1.414-1.414m-1.414 1.414L12 9.172m1.414 1.414L14.828 12" stroke="currentColor" stroke-linecap="round" stroke-linejoin="round"/></svg>
